pix/e/acronym.svg

<!DOCTYPE svg PUBLIC "-//W3C//DTD SVG 1.1//EN" "http://www.w3.org/Graphics/SVG/1.1/DTD/svg11.dtd" [
	<!ENTITY ns_flows "http://ns.adobe.com/Flows/1.0/">
]><svg xmlns="http://www.w3.org/2000/svg" width="16" height="16" viewBox="0 -3.9 16 16" preserveAspectRatio="xMinYMid meet" overflow="visible"><path d="M13.8 3.8c.7.2 1.2.4 1.5.7.5.3.7.8.7 1.4 0 .6-.2 1.1-.7 1.5-.6.5-1.4.7-2.6.7h-4v-.3c.4 0 .6 0 .7-.1l.3-.3s.1-.4.1-.8V1.5c0-.4 0-.7-.1-.8L9.4.4S9 .3 8.7.3V.1h3.8c.9 0 1.6.1 1.9.2s.7.4.9.7.3.7.3 1c0 .4-.1.7-.4 1s-.7.7-1.4.8zm-2.2.3v2.8c0 .2.1.4.2.5s.3.2.5.2c.3 0 .6-.1.9-.2s.5-.3.6-.6.2-.6.2-.9c0-.4-.1-.7-.3-1s-.4-.5-.7-.6-.8-.2-1.4-.2zm0-.4c.6 0 1-.1 1.2-.2s.5-.3.6-.5.2-.5.2-.9-.1-.6-.2-.9-.3-.4-.6-.5-.7-.2-1.2-.2v3.2zM4.9 5.8H2.1l-.3.8c-.2.3-.2.5-.2.7 0 .2.1.4.3.5.1 0 .3.1.7.1v.2H0v-.2c.3 0 .5-.2.7-.4s.4-.6.7-1.2L4.2 0h.1l2.9 6.5c.3.6.5 1 .7 1.2.1.1.3.2.5.2v.2H4.6v-.2h.2c.3 0 .5 0 .7-.1.1-.1.1-.2.1-.3v-.2l-.2-.4-.5-1.1zm-.2-.4L3.5 2.7 2.3 5.4h2.4z" fill="#999"/></svg>

<?xml version="1.0" encoding="utf-8"?>
<!-- Generator: Adobe Illustrator 15.1.0, SVG Export Plug-In  -->
<!DOCTYPE svg PUBLIC "-//W3C//DTD SVG 1.1//EN" "http://www.w3.org/Graphics/SVG/1.1/DTD/svg11.dtd" [
	<!ENTITY ns_flows "http://ns.adobe.com/Flows/1.0/">
]>
<svg version="1.1"
	 xmlns="http://www.w3.org/2000/svg" xmlns:xlink="http://www.w3.org/1999/xlink" xmlns:a="http://ns.adobe.com/AdobeSVGViewerExtensions/3.0/"
	 x="0px" y="0px" width="16px" height="16px" viewBox="0 -3.9 16 16" style="overflow:visible;enable-background:new 0 -3.9 16 16;"
	 xml:space="preserve" preserveAspectRatio="xMinYMid meet">
<defs>
</defs>
<path style="fill:#999999;" d="M13.8,3.8C14.5,4,15,4.2,15.3,4.5C15.8,4.8,16,5.3,16,5.9c0,0.6-0.2,1.1-0.7,1.5
	c-0.6,0.5-1.4,0.7-2.6,0.7h-4V7.8c0.4,0,0.6,0,0.7-0.1s0.2-0.2,0.3-0.3s0.1-0.4,0.1-0.8V1.5c0-0.4,0-0.7-0.1-0.8S9.5,0.5,9.4,0.4
	S9,0.3,8.7,0.3V0.1h3.8c0.9,0,1.6,0.1,1.9,0.2s0.7,0.4,0.9,0.7s0.3,0.7,0.3,1c0,0.4-0.1,0.7-0.4,1S14.5,3.7,13.8,3.8z M11.6,4.1v2.5
	l0,0.3c0,0.2,0.1,0.4,0.2,0.5s0.3,0.2,0.5,0.2c0.3,0,0.6-0.1,0.9-0.2s0.5-0.3,0.6-0.6s0.2-0.6,0.2-0.9c0-0.4-0.1-0.7-0.3-1
	S13.3,4.4,13,4.3S12.2,4.1,11.6,4.1z M11.6,3.7c0.6,0,1-0.1,1.2-0.2s0.5-0.3,0.6-0.5s0.2-0.5,0.2-0.9s-0.1-0.6-0.2-0.9
	s-0.3-0.4-0.6-0.5s-0.7-0.2-1.2-0.2V3.7z M4.9,5.8H2.1L1.8,6.6C1.6,6.9,1.6,7.1,1.6,7.3c0,0.2,0.1,0.4,0.3,0.5
	C2,7.8,2.2,7.9,2.6,7.9v0.2H0V7.9c0.3,0,0.5-0.2,0.7-0.4s0.4-0.6,0.7-1.2L4.2,0h0.1l2.9,6.5c0.3,0.6,0.5,1,0.7,1.2
	C8,7.8,8.2,7.9,8.4,7.9v0.2H4.6V7.9h0.2c0.3,0,0.5,0,0.7-0.1c0.1-0.1,0.1-0.2,0.1-0.3c0-0.1,0-0.1,0-0.2c0,0-0.1-0.2-0.2-0.4
	L4.9,5.8z M4.7,5.4L3.5,2.7L2.3,5.4H4.7z"/>
</svg>
